;FLAVOR:Marlin
;TIME:9483
;Filament used: 4.88471m
;Layer height: 0.16
;MINX:82.8
;MINY:82.9
;MINZ:0.2
;MAXX:152.2
;MAXY:152.1
;MAXZ:18.4
;Generated with Cura_SteamEngine 5.0.0
M140 S50
M105
M190 S50
M104 S200
M105
M109 S200
M82 ;absolute extrusion mode
; Ender 3 Custom Start G-code
G92 E0 ; Reset Extruder
G28 ; Home all axes
G1 Z2.0 F3000 ; Move Z Axis up little to prevent scratching of Heat Bed
G1 X0.1 Y20 Z0.3 F5000.0 ; Move to start position
G1 X0.1 Y200.0 Z0.3 F1500.0 E15 ; Draw the first line
G1 X0.4 Y200.0 Z0.3 F5000.0 ; Move to side a little
G1 X0.4 Y20 Z0.3 F1500.0 E30 ; Draw the second line
G92 E0 ; Reset Extruder
G1 Z2.0 F3000 ; Move Z Axis up little to prevent scratching of Heat Bed
G1 X5 Y20 Z0.3 F5000.0 ; Move over to prevent blob squish
G92 E0
G92 E0
G1 F2700 E-5
;LAYER_COUNT:108
;LAYER:0
M107
;MESH:VSSS_CIMA - Battery_case.stl
G0 F6000 X89.7 Y152.1 Z0.2
;TYPE:WALL-OUTER
G1 F2700 E0
G1 F1200 X89.7 Y149.3 E0.09313
G1 X89.763 Y149.154 E0.09842
G1 X89.9 Y149.1 E0.10331
G1 X145.124 Y149.101 E1.94007
G1 X145.263 Y149.183 E1.94544
G1 X145.3 Y149.3 E1.94952
G1 X145.3 Y152.1 E2.04265
G1 X152.2 Y152.1 E2.27215
G1 X152.2 Y86.382 E4.45793
G1 X152.2 Y82.9 E4.57375
G1 X145.3 Y82.9 E4.80324
G1 X145.3 Y85.7 E4.89637
G1 X145.237 Y85.846 E4.90166
G1 X145.1 Y85.9 E4.90656
G1 X89.875 Y85.899 E6.74335
G1 X89.737 Y85.817 E6.74869
G1 X89.7 Y85.7 E6.75277
G1 X89.7 Y82.9 E6.8459
G1 X82.801 Y82.901 E7.07536
G1 X82.8 Y147.791 E9.23361
G1 X82.801 Y152.099 E9.37689
G1 X89.7 Y152.1 E9.60635
G0 F6000 X89.3 Y151.7
;TYPE:WALL-INNER
G1 F1200 X89.3 Y149.3 E9.68618
G1 X89.349 Y149.062 E9.69426
G1 X89.489 Y148.862 E9.70238
G1 X89.748 Y148.719 E9.71222
G1 X89.9 Y148.7 E9.71732
G1 X145.1 Y148.7 E11.55327
G1 X145.337 Y148.748 E11.56132
G1 X145.511 Y148.862 E11.56824
G1 X145.652 Y149.062 E11.57638
G1 X145.7 Y149.3 E11.58445
G1 X145.7 Y151.7 E11.66427
G1 X151.8 Y151.7 E11.86716
G1 X151.8 Y86.382 E14.03965
G1 X151.8 Y83.3 E14.14215
G1 X145.7 Y83.3 E14.34504
G1 X145.7 Y85.7 E14.42487
G1 X145.652 Y85.938 E14.43294
G1 X145.511 Y86.138 E14.44108
G1 X145.252 Y86.281 E14.45092
G1 X145.1 Y86.3 E14.45602
G1 X89.9 Y86.3 E16.29197
G1 X89.663 Y86.252 E16.30002
G1 X89.489 Y86.138 E16.30694
G1 X89.349 Y85.938 E16.31506
G1 X89.3 Y85.7 E16.32314
G1 X89.3 Y83.3 E16.40296
G1 X83.201 Y83.301 E16.60582
G1 X83.2 Y147.791 E18.75076
G1 X83.201 Y151.699 E18.88074
G1 X89.3 Y151.7 E19.0836
G0 F6000 X88.94 Y151.34
;TYPE:SKIN
G1 F1200 X88.94 Y149.285 E19.15195
G1 X88.969 Y149.075 E19.159
G1 X89.098 Y148.777 E19.1698
G1 X89.356 Y148.511 E19.18212
G1 X89.74 Y148.356 E19.1959
G1 X89.807 Y148.345 E19.19815
G1 X145.119 Y148.34 E21.03784
G1 X145.444 Y148.407 E21.04888
G1 X145.735 Y148.581 E21.06015
G1 X145.965 Y148.889 E21.07294
G1 X146.034 Y149.15 E21.08192
G1 X146.06 Y149.3 E21.08698
G1 X146.06 Y151.34 E21.15483
G1 X151.44 Y151.34 E21.33377
G1 X151.44 Y86.381 E23.49432
G1 X151.44 Y83.66 E23.58482
G1 X146.06 Y83.66 E23.76376
G1 X146.06 Y85.715 E23.8321
G1 X146.031 Y85.923 E23.83909
G1 X145.904 Y86.22 E23.84983
G1 X145.647 Y86.487 E23.86216
G1 X145.261 Y86.644 E23.87602
G1 X145.194 Y86.655 E23.87828
G1 X89.881 Y86.66 E25.718
G1 X89.556 Y86.593 E25.72903
G1 X89.267 Y86.421 E25.74022
G1 X89.036 Y86.111 E25.75308
G1 X88.964 Y85.839 E25.76243
G1 X88.94 Y85.702 E25.76706
G1 X88.94 Y83.66 E25.83498
G1 X83.562 Y83.661 E26.01385
G1 X83.561 Y143.049 E27.9891
G1 X83.562 Y151.339 E28.26483
G1 X88.94 Y151.34 E28.4437
G0 F6000 X89.2 Y151.34
G0 X83.821 Y151.599
G0 X83.821 Y151.138
G1 F1200 X83.761 Y151.078 E28.44653
G0 F6000 X83.761 Y150.512
G1 F1200 X84.387 Y151.138 E28.47597
G0 F6000 X84.953 Y151.138
G1 F1200 X83.761 Y149.946 E28.53204
G0 F6000 X83.761 Y149.381
G1 F1200 X85.518 Y151.138 E28.61468
G0 F6000 X86.084 Y151.138
G1 F1200 X83.761 Y148.815 E28.72395
G0 F6000 X83.761 Y148.249
G1 F1200 X86.65 Y151.138 E28.85984
G0 F6000 X87.215 Y151.138
G1 F1200 X83.761 Y147.684 E29.0223
G0 F6000 X83.761 Y147.118
G1 F1200 X87.781 Y151.138 E29.21139
G0 F6000 X88.347 Y151.138
G1 F1200 X83.761 Y146.552 E29.4271
G0 F6000 X83.761 Y145.987
G1 F1200 X88.74 Y150.965 E29.66128
G0 F6000 X88.74 Y150.4
G1 F1200 X83.761 Y145.421 E29.89547
G0 F6000 X83.761 Y144.855
G1 F1200 X88.74 Y149.834 E30.12967
G0 F6000 X88.74 Y149.268
G1 F1200 X83.761 Y144.29 E30.36385
G0 F6000 X83.761 Y143.724
G1 F1200 X88.869 Y148.832 E30.60411
G0 F6000 X89.089 Y148.486
G1 F1200 X83.761 Y143.158 E30.85472
G0 F6000 X83.761 Y142.593
G1 F1200 X89.425 Y148.256 E31.12112
G0 F6000 X89.883 Y148.148
G1 F1200 X83.761 Y142.027 E31.40905
G0 F6000 X83.761 Y141.461
G1 F1200 X90.448 Y148.148 E31.72359
G0 F6000 X91.014 Y148.148
G1 F1200 X83.761 Y140.895 E32.06475
G0 F6000 X83.761 Y140.33
G1 F1200 X91.58 Y148.148 E32.43251
G0 F6000 X92.145 Y148.148
G1 F1200 X83.761 Y139.764 E32.82686
G0 F6000 X83.761 Y139.198
G1 F1200 X92.711 Y148.148 E33.24784
G0 F6000 X93.277 Y148.148
G1 F1200 X83.761 Y138.633 E33.69542
G0 F6000 X83.761 Y138.067
G1 F1200 X93.842 Y148.148 E34.1696
G0 F6000 X94.407 Y148.148
G1 F1200 X83.761 Y137.501 E34.67038
G0 F6000 X83.761 Y136.936
G1 F1200 X94.973 Y148.148 E35.19776
G0 F6000 X95.539 Y148.148
G1 F1200 X83.761 Y136.37 E35.75176
G0 F6000 X83.761 Y135.804
G1 F1200 X96.105 Y148.148 E36.33239
G0 F6000 X96.67 Y148.148
G1 F1200 X83.761 Y135.239 E36.93958
G0 F6000 X83.761 Y134.673
G1 F1200 X97.236 Y148.148 E37.57341
G0 F6000 X97.801 Y148.147
G1 F1200 X83.761 Y134.107 E38.23381
G0 F6000 X83.761 Y133.542
G1 F1200 X98.367 Y148.147 E38.9208
G0 F6000 X98.932 Y148.147
G1 F1200 X83.761 Y132.976 E39.6344
G0 F6000 X83.761 Y132.41
G1 F1200 X99.498 Y148.147 E40.37462
G0 F6000 X100.064 Y148.147
G1 F1200 X83.761 Y131.845 E41.14144
G0 F6000 X83.761 Y131.279
G1 F1200 X100.629 Y148.147 E41.93486
G0 F6000 X101.195 Y148.147
G1 F1200 X83.761 Y130.713 E42.7549
G0 F6000 X83.761 Y130.147
G1 F1200 X101.76 Y148.146 E43.60152
G0 F6000 X102.326 Y148.146
G1 F1200 X83.761 Y129.582 E44.47474
G0 F6000 X83.761 Y129.016
G1 F1200 X102.891 Y148.146 E45.37455
G0 F6000 X103.457 Y148.146
G1 F1200 X83.761 Y128.45 E46.30099
G0 F6000 X83.761 Y127.885
G1 F1200 X104.023 Y148.146 E47.25403
G0 F6000 X104.588 Y148.146
G1 F1200 X83.761 Y127.319 E48.23367
G0 F6000 X83.761 Y126.753
G1 F1200 X105.154 Y148.146 E49.23993
G0 F6000 X105.719 Y148.145
G1 F1200 X83.761 Y126.188 E50.27274
G0 F6000 X83.761 Y125.622
G1 F1200 X106.285 Y148.145 E51.33218
G0 F6000 X106.85 Y148.145
G1 F1200 X83.761 Y125.056 E52.41822
G0 F6000 X83.761 Y124.491
G1 F1200 X107.416 Y148.145 E53.53085
G0 F6000 X107.982 Y148.145
G1 F1200 X83.761 Y123.925 E54.67011
G0 F6000 X83.761 Y123.359
G1 F1200 X108.547 Y148.145 E55.83597
G0 F6000 X109.113 Y148.145
G1 F1200 X83.761 Y122.794 E57.02842
G0 F6000 X83.761 Y122.228
G1 F1200 X109.678 Y148.145 E58.24748
G0 F6000 X110.244 Y148.145
G1 F1200 X83.761 Y121.662 E59.49316
G0 F6000 X83.761 Y121.096
G1 F1200 X110.809 Y148.145 E60.76544
G0 F6000 X111.375 Y148.145
G1 F1200 X83.761 Y120.531 E62.06432
G0 F6000 X83.761 Y119.965
G1 F1200 X111.941 Y148.145 E63.38982
G0 F6000 X112.507 Y148.145
G1 F1200 X83.761 Y119.399 E64.74194
G0 F6000 X83.761 Y118.834
G1 F1200 X113.072 Y148.145 E66.12064
G0 F6000 X113.637 Y148.144
G1 F1200 X83.761 Y118.268 E67.52592
G0 F6000 X83.761 Y117.702
G1 F1200 X114.203 Y148.144 E68.95781
G0 F6000 X114.769 Y148.144
G1 F1200 X83.761 Y117.137 E70.41631
G0 F6000 X83.761 Y116.571
G1 F1200 X115.334 Y148.144 E71.90141
G0 F6000 X115.9 Y148.144
G1 F1200 X83.761 Y116.005 E73.41313
G0 F6000 X83.761 Y115.44
G1 F1200 X116.466 Y148.144 E74.95145
G0 F6000 X117.031 Y148.144
G1 F1200 X83.761 Y114.874 E76.51637
G0 F6000 X83.761 Y114.308
G1 F1200 X117.596 Y148.143 E78.10786
G0 F6000 X118.162 Y148.143
G1 F1200 X83.761 Y113.743 E79.72596
G0 F6000 X83.761 Y113.177
G1 F1200 X118.728 Y148.143 E81.37067
G0 F6000 X119.293 Y148.143
G1 F1200 X83.761 Y112.611 E83.04199
G0 F6000 X83.761 Y112.046
G1 F1200 X119.859 Y148.143 E84.7399
G0 F6000 X120.425 Y148.143
G1 F1200 X83.761 Y111.48 E86.46444
G0 F6000 X83.761 Y110.914
G1 F1200 X120.99 Y148.143 E88.21558
G0 F6000 X121.555 Y148.143
G1 F1200 X83.761 Y110.348 E89.99332
G0 F6000 X83.761 Y109.783
G1 F1200 X122.121 Y148.143 E91.79766
G0 F6000 X122.687 Y148.143
G1 F1200 X83.761 Y109.217 E93.62862
G0 F6000 X83.761 Y108.651
G1 F1200 X123.252 Y148.143 E95.48617
G0 F6000 X123.818 Y148.143
G1 F1200 X83.761 Y108.086 E97.37033
G0 F6000 X83.761 Y107.52
G1 F1200 X124.384 Y148.143 E99.28111
G0 F6000 X124.95 Y148.143
G1 F1200 X83.761 Y106.954 E101.21852
G0 F6000 X83.761 Y106.389
G1 F1200 X125.514 Y148.142 E103.18245
G0 F6000 X126.08 Y148.142
G1 F1200 X83.761 Y105.823 E105.17301
G0 F6000 X83.761 Y105.257
G1 F1200 X126.646 Y148.142 E107.19019
G0 F6000 X127.212 Y148.142
G1 F1200 X83.761 Y104.692 E109.23396
G0 F6000 X83.761 Y104.126
G1 F1200 X127.777 Y148.142 E111.30434
G0 F6000 X128.343 Y148.142
G1 F1200 X83.761 Y103.56 E113.40134
G0 F6000 X83.761 Y102.995
G1 F1200 X128.909 Y148.142 E115.52494
G0 F6000 X129.474 Y148.141
G1 F1200 X83.761 Y102.429 E117.67512
G0 F6000 X83.761 Y101.863
G1 F1200 X130.039 Y148.141 E119.85189
G0 F6000 X130.605 Y148.141
G1 F1200 X83.761 Y101.297 E122.05529
G0 F6000 X83.761 Y100.732
G1 F1200 X131.171 Y148.141 E124.28529
G0 F6000 X131.736 Y148.141
G1 F1200 X83.761 Y100.166 E126.54189
G0 F6000 X83.761 Y99.6
G1 F1200 X132.302 Y148.141 E128.82511
G0 F6000 X132.868 Y148.141
G1 F1200 X83.761 Y99.035 E131.13493
G0 F6000 X83.761 Y98.469
G1 F1200 X133.433 Y148.14 E133.47132
G0 F6000 X133.998 Y148.14
G1 F1200 X83.761 Y97.903 E135.83432
G0 F6000 X83.761 Y97.338
G1 F1200 X134.564 Y148.14 E138.22391
G0 F6000 X135.13 Y148.14
G1 F1200 X83.761 Y96.772 E140.64013
G0 F6000 X83.761 Y96.206
G1 F1200 X135.695 Y148.14 E143.08294
G0 F6000 X136.261 Y148.14
G1 F1200 X83.761 Y95.641 E145.55236
G0 F6000 X83.761 Y95.075
G1 F1200 X136.827 Y148.14 E148.0484
G0 F6000 X137.392 Y148.14
G1 F1200 X83.761 Y94.509 E150.57103
G0 F6000 X83.761 Y93.944
G1 F1200 X137.957 Y148.14 E153.12025
G0 F6000 X138.523 Y148.14
G1 F1200 X83.761 Y93.378 E155.69608
G0 F6000 X83.761 Y92.812
G1 F1200 X139.089 Y148.14 E158.29854
G0 F6000 X139.655 Y148.14
G1 F1200 X83.761 Y92.247 E160.9276
G0 F6000 X83.761 Y91.681
G1 F1200 X140.22 Y148.14 E163.58326
G0 F6000 X140.786 Y148.14
G1 F1200 X83.761 Y91.115 E166.26554
G0 F6000 X83.761 Y90.549
G1 F1200 X141.351 Y148.139 E168.9744
G0 F6000 X141.917 Y148.139
G1 F1200 X83.761 Y89.984 E171.70986
G0 F6000 X83.761 Y89.418
G1 F1200 X142.482 Y148.139 E174.47191
G0 F6000 X143.048 Y148.139
G1 F1200 X83.761 Y88.852 E177.26059
G0 F6000 X83.761 Y88.287
G1 F1200 X143.614 Y148.139 E180.07587
G0 F6000 X144.179 Y148.139
G1 F1200 X83.761 Y87.721 E182.91775
G0 F6000 X83.761 Y87.155
G1 F1200 X144.745 Y148.139 E185.78625
G0 F6000 X145.369 Y148.198
G1 F1200 X83.761 Y86.59 E188.6841
G0 F6000 X83.761 Y86.024
G1 F1200 X148.876 Y151.139 E191.74691
G0 F6000 X148.31 Y151.139
G1 F1200 X146.214 Y149.042 E191.84552
G0 F6000 X146.26 Y149.654
G1 F1200 X147.745 Y151.139 E191.91537
G0 F6000 X147.179 Y151.139
G1 F1200 X146.26 Y150.219 E191.95862
G0 F6000 X146.26 Y150.785
G1 F1200 X146.613 Y151.139 E191.97525
G0 F6000 X146.613 Y151.6
G0 X149.442 Y151.6
G0 X149.442 Y151.139
G1 F1200 X83.761 Y85.458 E195.06468
G0 F6000 X83.761 Y84.893
G1 F1200 X150.007 Y151.139 E198.18069
G0 F6000 X150.573 Y151.139
G1 F1200 X83.761 Y84.327 E201.32332
G0 F6000 X83.86 Y83.86
G1 F1200 X151.139 Y151.139 E204.48792
G0 F6000 X151.238 Y150.673
G1 F1200 X84.426 Y83.86 E207.63057
G0 F6000 X84.992 Y83.86
G1 F1200 X151.238 Y150.107 E210.74661
G0 F6000 X151.238 Y149.541
G1 F1200 X85.557 Y83.86 E213.83604
G0 F6000 X86.123 Y83.86
G1 F1200 X151.238 Y148.976 E216.89887
G0 F6000 X151.238 Y148.41
G1 F1200 X89.629 Y86.8 E219.7968
G0 F6000 X90.253 Y86.859
G1 F1200 X151.238 Y147.844 E222.66534
G0 F6000 X151.238 Y147.279
G1 F1200 X90.819 Y86.859 E225.50729
G0 F6000 X91.385 Y86.859
G1 F1200 X151.238 Y146.713 E228.32262
G0 F6000 X151.238 Y146.147
G1 F1200 X91.95 Y86.859 E231.11134
G0 F6000 X92.516 Y86.859
G1 F1200 X151.238 Y145.581 E233.87344
G0 F6000 X151.238 Y145.016
G1 F1200 X93.082 Y86.859 E236.60895
G0 F6000 X93.647 Y86.859
G1 F1200 X151.238 Y144.45 E239.31785
G0 F6000 X151.238 Y143.884
G1 F1200 X94.212 Y86.858 E242.00018
G0 F6000 X94.778 Y86.858
G1 F1200 X151.238 Y143.319 E244.65591
G0 F6000 X151.238 Y142.753
G1 F1200 X95.344 Y86.858 E247.28501
G0 F6000 X95.909 Y86.858
G1 F1200 X151.238 Y142.187 E249.88752
G0 F6000 X151.238 Y141.622
G1 F1200 X96.475 Y86.858 E252.46343
G0 F6000 X97.041 Y86.858
G1 F1200 X151.238 Y141.056 E255.01271
G0 F6000 X151.238 Y140.49
G1 F1200 X97.606 Y86.858 E257.5354
G0 F6000 X98.172 Y86.858
G1 F1200 X151.238 Y139.925 E260.03148
G0 F6000 X151.238 Y139.359
G1 F1200 X98.737 Y86.858 E262.50097
G0 F6000 X99.303 Y86.858
G1 F1200 X151.238 Y138.793 E264.94383
G0 F6000 X151.238 Y138.228
G1 F1200 X99.868 Y86.858 E267.36012
G0 F6000 X100.434 Y86.858
G1 F1200 X151.238 Y137.662 E269.74978
G0 F6000 X151.238 Y137.096
G1 F1200 X101 Y86.858 E272.11283
G0 F6000 X101.565 Y86.858
G1 F1200 X151.238 Y136.531 E274.44929
G0 F6000 X151.238 Y135.965
G1 F1200 X102.131 Y86.858 E276.75913
G0 F6000 X102.696 Y86.857
G1 F1200 X151.238 Y135.399 E279.0424
G0 F6000 X151.238 Y134.833
G1 F1200 X103.262 Y86.857 E281.29904
G0 F6000 X103.828 Y86.857
G1 F1200 X151.238 Y134.268 E283.52909
G0 F6000 X151.238 Y133.702
G1 F1200 X104.393 Y86.857 E285.73253
G0 F6000 X104.959 Y86.857
G1 F1200 X151.238 Y133.136 E287.90936
G0 F6000 X151.238 Y132.571
G1 F1200 X105.525 Y86.857 E290.05958
G0 F6000 X106.09 Y86.857
G1 F1200 X151.238 Y132.005 E292.1832
G0 F6000 X151.238 Y131.439
G1 F1200 X106.656 Y86.857 E294.2802
G0 F6000 X107.221 Y86.856
G1 F1200 X151.238 Y130.874 E296.35065
G0 F6000 X151.238 Y130.308
G1 F1200 X107.787 Y86.856 E298.39448
G0 F6000 X108.352 Y86.856
G1 F1200 X151.238 Y129.742 E300.4117
G0 F6000 X151.238 Y129.177
G1 F1200 X108.918 Y86.856 E302.40233
G0 F6000 X109.484 Y86.856
G1 F1200 X151.238 Y128.611 E304.36633
G0 F6000 X151.238 Y128.045
G1 F1200 X110.049 Y86.856 E306.30374
G0 F6000 X110.615 Y86.856
G1 F1200 X151.238 Y127.48 E308.21454
G0 F6000 X151.238 Y126.914
G1 F1200 X111.181 Y86.856 E310.09872
G0 F6000 X111.746 Y86.856
G1 F1200 X151.238 Y126.348 E311.95631
G0 F6000 X151.238 Y125.782
G1 F1200 X112.311 Y86.856 E313.78729
G0 F6000 X112.877 Y86.856
G1 F1200 X151.238 Y125.217 E315.59167
G0 F6000 X151.238 Y124.651
G1 F1200 X113.443 Y86.856 E317.36943
G0 F6000 X114.008 Y86.856
G1 F1200 X151.238 Y124.085 E319.1206
G0 F6000 X151.238 Y123.52
G1 F1200 X114.574 Y86.856 E320.84516
G0 F6000 X115.14 Y86.856
G1 F1200 X151.238 Y122.954 E322.5431
G0 F6000 X151.238 Y122.388
G1 F1200 X115.705 Y86.855 E324.21446
G0 F6000 X116.27 Y86.855
G1 F1200 X151.238 Y121.823 E325.85925
G0 F6000 X151.238 Y121.257
G1 F1200 X116.836 Y86.855 E327.47741
G0 F6000 X117.402 Y86.855
G1 F1200 X151.238 Y120.691 E329.06896
G0 F6000 X151.238 Y120.126
G1 F1200 X117.968 Y86.855 E330.6339
G0 F6000 X118.533 Y86.855
G1 F1200 X151.238 Y119.56 E332.17224
G0 F6000 X151.238 Y118.994
G1 F1200 X119.099 Y86.855 E333.68396
G0 F6000 X119.665 Y86.855
G1 F1200 X151.238 Y118.429 E335.16908
G0 F6000 X151.238 Y117.863
G1 F1200 X120.23 Y86.854 E336.62763
G0 F6000 X120.795 Y86.854
G1 F1200 X151.238 Y117.297 E338.05957
G0 F6000 X151.238 Y116.732
G1 F1200 X121.361 Y86.854 E339.46492
G0 F6000 X121.927 Y86.854
G1 F1200 X151.238 Y116.166 E340.84364
G0 F6000 X151.238 Y115.6
G1 F1200 X122.492 Y86.854 E342.19576
G0 F6000 X123.058 Y86.854
G1 F1200 X151.238 Y115.034 E343.52126
G0 F6000 X151.238 Y114.469
G1 F1200 X123.624 Y86.854 E344.82017
G0 F6000 X124.189 Y86.853
G1 F1200 X151.238 Y113.903 E346.09249
G0 F6000 X151.238 Y113.337
G1 F1200 X124.754 Y86.853 E347.33822
G0 F6000 X125.32 Y86.853
G1 F1200 X151.238 Y112.772 E348.55734
G0 F6000 X151.238 Y112.206
G1 F1200 X125.886 Y86.853 E349.74985
G0 F6000 X126.451 Y86.853
G1 F1200 X151.238 Y111.64 E350.91575
G0 F6000 X151.238 Y111.075
G1 F1200 X127.017 Y86.853 E352.05506
G0 F6000 X127.583 Y86.853
G1 F1200 X151.238 Y110.509 E353.16774
G0 F6000 X151.238 Y109.943
G1 F1200 X128.148 Y86.853 E354.25382
G0 F6000 X128.713 Y86.853
G1 F1200 X151.238 Y109.378 E355.31333
G0 F6000 X151.238 Y108.812
G1 F1200 X129.279 Y86.853 E356.34621
G0 F6000 X129.845 Y86.853
