;FLAVOR:Marlin
;TIME:1333
;Filament used: 0.74889m
;Layer height: 0.28
;MINX:102.701
;MINY:109.951
;MINZ:0.28
;MAXX:132.175
;MAXY:125.049
;MAXZ:23.96
;Generated with Cura_SteamEngine 5.0.0
M140 S50
M105
M190 S50
M104 S200
M105
M109 S200
M82 ;absolute extrusion mode
; Ender 3 Custom Start G-code
G92 E0 ; Reset Extruder
G28 ; Home all axes
G1 Z2.0 F3000 ; Move Z Axis up little to prevent scratching of Heat Bed
G1 X0.1 Y20 Z0.3 F5000.0 ; Move to start position
G1 X0.1 Y200.0 Z0.3 F1500.0 E15 ; Draw the first line
G1 X0.4 Y200.0 Z0.3 F5000.0 ; Move to side a little
G1 X0.4 Y20 Z0.3 F1500.0 E30 ; Draw the second line
G92 E0 ; Reset Extruder
G1 Z2.0 F3000 ; Move Z Axis up little to prevent scratching of Heat Bed
G1 X5 Y20 Z0.3 F5000.0 ; Move over to prevent blob squish
G92 E0
G92 E0
G1 F2700 E-5
;LAYER_COUNT:96
;LAYER:0
M107
;MESH:3DBenchy.3mf
G0 F6000 X117.235 Y121.511 Z0.28
;TYPE:WALL-OUTER
G1 F2700 E0
G1 F1200 X117.781 Y121.511 E0.02542
G1 X118.218 Y121.483 E0.04581
G1 X118.66 Y121.428 E0.06655
G1 X119.154 Y121.337 E0.08994
G1 X119.595 Y121.225 E0.11113
G1 X119.998 Y121.099 E0.13079
G1 X120.444 Y120.929 E0.15302
G1 X120.875 Y120.732 E0.17508
G1 X121.274 Y120.521 E0.1961
G1 X121.657 Y120.287 E0.217
G1 X121.976 Y120.069 E0.23499
G1 X122.326 Y119.799 E0.25557
G1 X122.663 Y119.506 E0.27637
G1 X122.978 Y119.197 E0.29691
G1 X123.283 Y118.862 E0.31801
G1 X123.602 Y118.461 E0.34187
G1 X123.861 Y118.089 E0.36298
G1 X124.058 Y117.765 E0.38063
G1 X124.134 Y117.56 E0.39081
G1 X124.129 Y117.471 E0.39496
G1 X124.033 Y117.196 E0.40853
G1 X123.864 Y116.924 E0.42344
G1 X123.612 Y116.558 E0.44413
G1 X123.447 Y116.339 E0.4569
G1 X123.164 Y116.003 E0.47735
G1 X122.852 Y115.675 E0.49843
G1 X122.465 Y115.317 E0.52298
G1 X122.172 Y115.079 E0.54056
G1 X121.766 Y114.785 E0.5639
G1 X121.323 Y114.508 E0.58823
G1 X120.872 Y114.266 E0.61206
G1 X120.445 Y114.071 E0.63392
G1 X119.993 Y113.899 E0.65644
G1 X119.551 Y113.763 E0.67797
G1 X119.077 Y113.647 E0.70069
G1 X118.731 Y113.582 E0.71709
G1 X118.227 Y113.518 E0.74074
G1 X117.784 Y113.488 E0.76142
G1 X117.324 Y113.487 E0.78284
G1 X117.113 Y113.499 E0.79268
G1 X105.254 Y114.257 E1.34601
G1 X104.901 Y114.405 E1.36384
G1 X104.73 Y114.62 E1.37663
G1 X104.656 Y114.917 E1.39088
G1 X104.656 Y120.098 E1.63213
G1 X104.723 Y120.342 E1.64391
G1 X104.777 Y120.461 E1.65
G1 X104.975 Y120.647 E1.66265
G1 X105.254 Y120.741 E1.67635
G1 X117.235 Y121.511 E2.23539
G0 F6000 X117.248 Y121.111
;TYPE:WALL-INNER
G1 F1200 X117.769 Y121.111 E2.25965
G1 X118.18 Y121.085 E2.27883
G1 X118.599 Y121.032 E2.29849
G1 X119.068 Y120.946 E2.3207
G1 X119.486 Y120.84 E2.34078
G1 X119.867 Y120.721 E2.35936
G1 X120.289 Y120.56 E2.38039
G1 X120.698 Y120.373 E2.40133
G1 X121.076 Y120.173 E2.42125
G1 X121.44 Y119.951 E2.4411
G1 X121.74 Y119.745 E2.45805
G1 X122.072 Y119.489 E2.47757
G1 X122.391 Y119.212 E2.49724
G1 X122.69 Y118.919 E2.51673
G1 X122.978 Y118.602 E2.53668
G1 X123.281 Y118.222 E2.55931
G1 X123.535 Y117.854 E2.58013
G1 X123.696 Y117.59 E2.59453
G1 X123.729 Y117.494 E2.59925
G1 X123.527 Y117.141 E2.61819
G1 X123.289 Y116.794 E2.63778
G1 X122.986 Y116.412 E2.66049
G1 X122.698 Y116.093 E2.6805
G1 X122.522 Y115.914 E2.69219
G1 X122.203 Y115.619 E2.71242
G1 X121.928 Y115.397 E2.72888
G1 X121.542 Y115.117 E2.75108
G1 X121.122 Y114.854 E2.77416
G1 X120.694 Y114.625 E2.79676
G1 X120.29 Y114.44 E2.81745
G1 X119.863 Y114.277 E2.83873
G1 X119.445 Y114.149 E2.85909
G1 X118.993 Y114.038 E2.88076
G1 X118.669 Y113.978 E2.8961
G1 X118.188 Y113.916 E2.91869
G1 X117.77 Y113.888 E2.93819
G1 X117.336 Y113.887 E2.9584
G1 X117.139 Y113.898 E2.96759
G1 X105.299 Y114.656 E3.52004
G1 X105.129 Y114.762 E3.52937
G1 X105.056 Y114.965 E3.53941
G1 X105.056 Y120.072 E3.77722
G1 X105.109 Y120.225 E3.78476
G1 X105.289 Y120.331 E3.79448
G1 X105.377 Y120.348 E3.79866
G1 X117.248 Y121.111 E4.35256
G0 F6000 X117.262 Y120.711
G1 F1200 X117.756 Y120.711 E4.37556
G1 X118.142 Y120.687 E4.39357
G1 X118.538 Y120.637 E4.41216
G1 X118.983 Y120.555 E4.43323
G1 X119.377 Y120.455 E4.45216
G1 X119.736 Y120.343 E4.46967
G1 X120.135 Y120.191 E4.48955
G1 X120.521 Y120.014 E4.50932
G1 X120.878 Y119.825 E4.52813
G1 X121.222 Y119.615 E4.5469
G1 X121.505 Y119.421 E4.56288
G1 X121.819 Y119.179 E4.58133
G1 X122.12 Y118.918 E4.59989
G1 X122.402 Y118.642 E4.61826
G1 X122.674 Y118.343 E4.63708
G1 X122.975 Y117.962 E4.65969
G1 X123.194 Y117.645 E4.67763
G1 X123.283 Y117.5 E4.68555
G1 X123.088 Y117.198 E4.70229
G1 X122.855 Y116.879 E4.72069
G1 X122.568 Y116.537 E4.74148
G1 X122.29 Y116.245 E4.76025
G1 X121.941 Y115.922 E4.78239
G1 X121.685 Y115.715 E4.79772
G1 X121.318 Y115.449 E4.81883
G1 X120.921 Y115.2 E4.84065
G1 X120.516 Y114.983 E4.86204
G1 X120.135 Y114.809 E4.88155
G1 X119.733 Y114.656 E4.90158
G1 X119.339 Y114.535 E4.92077
G1 X118.908 Y114.43 E4.94142
G1 X118.607 Y114.373 E4.95569
G1 X118.15 Y114.314 E4.97715
G1 X117.756 Y114.288 E4.99553
G1 X117.348 Y114.287 E5.01453
G1 X105.456 Y115.045 E5.5694
G1 X105.457 Y119.952 E5.79789
G1 X117.262 Y120.711 E6.34871
G0 F6000 X117.275 Y120.311
G1 F1200 X117.744 Y120.311 E6.37055
G1 X118.104 Y120.288 E6.38735
G1 X118.476 Y120.241 E6.40481
G1 X118.897 Y120.164 E6.42474
G1 X119.269 Y120.07 E6.4426
G1 X119.605 Y119.965 E6.45899
G1 X119.98 Y119.822 E6.47768
G1 X120.344 Y119.655 E6.49633
G1 X120.68 Y119.477 E6.51403
G1 X121.005 Y119.279 E6.53176
G1 X121.269 Y119.098 E6.54666
G1 X121.566 Y118.869 E6.56412
G1 X121.849 Y118.624 E6.58155
G1 X122.136 Y118.339 E6.60039
G1 X122.369 Y118.083 E6.61651
G1 X122.647 Y117.733 E6.63732
G1 X122.808 Y117.501 E6.65047
G1 X122.642 Y117.264 E6.66394
G1 X122.373 Y116.926 E6.68406
G1 X122.118 Y116.645 E6.70172
G1 X121.849 Y116.382 E6.71924
G1 X121.637 Y116.19 E6.73256
G1 X121.441 Y116.032 E6.74428
G1 X121.094 Y115.781 E6.76423
G1 X120.72 Y115.546 E6.78479
G1 X120.338 Y115.342 E6.80496
G1 X119.981 Y115.178 E6.82325
G1 X119.603 Y115.034 E6.84209
G1 X119.232 Y114.921 E6.86015
G1 X118.823 Y114.821 E6.87975
G1 X118.544 Y114.768 E6.89297
G1 X118.111 Y114.712 E6.91331
G1 X117.828 Y114.695 E6.92651
G1 X117.455 Y114.687 E6.94388
G1 X117.189 Y114.697 E6.95627
G1 X105.856 Y115.421 E7.48506
G1 X105.857 Y119.577 E7.67858
G1 X117.275 Y120.311 E8.21135
G0 F6000 X117.205 Y119.945
;TYPE:SKIN
G1 F1200 X117.733 Y119.95 E8.23594
G1 X117.993 Y119.935 E8.24806
G1 X118.349 Y119.894 E8.26475
G1 X118.738 Y119.827 E8.28313
G1 X119.087 Y119.743 E8.29985
G1 X119.415 Y119.647 E8.31576
G1 X119.77 Y119.516 E8.33338
G1 X120.113 Y119.364 E8.35085
G1 X120.447 Y119.193 E8.36832
G1 X120.764 Y119.002 E8.38555
G1 X121.017 Y118.834 E8.3997
G1 X121.3 Y118.619 E8.41624
G1 X121.572 Y118.387 E8.43289
G1 X121.847 Y118.116 E8.45087
G1 X122.089 Y117.852 E8.46755
G1 X122.266 Y117.631 E8.48073
G1 X122.367 Y117.497 E8.48854
G1 X122.268 Y117.364 E8.49626
G1 X122.018 Y117.064 E8.51445
G1 X121.781 Y116.814 E8.53049
G1 X121.478 Y116.529 E8.54986
G1 X121.259 Y116.348 E8.56309
G1 X120.942 Y116.117 E8.58135
G1 X120.6 Y115.896 E8.60031
G1 X120.245 Y115.702 E8.61915
G1 X119.906 Y115.54 E8.63664
G1 X119.561 Y115.402 E8.65395
G1 X119.222 Y115.297 E8.67047
G1 X118.879 Y115.206 E8.687
G1 X118.561 Y115.139 E8.70213
G1 X118.074 Y115.072 E8.72502
G1 X117.811 Y115.054 E8.73729
G1 X117.371 Y115.048 E8.75778
G1 X106.217 Y115.757 E9.27821
G1 X106.218 Y119.239 E9.44035
G1 X117.205 Y119.945 E9.953
G0 F6000 X117.188 Y120.203
G0 X118.946 Y119.986
G0 X120.211 Y119.539
G0 X121.233 Y118.906
G0 X122.436 Y117.836
G0 X122.074 Y117.549
G1 F1200 X120.783 Y116.258 E10.03802
G0 F6000 X121.035 Y115.862
G0 X119.755 Y115.2
G0 X119.59 Y115.63
G1 F1200 X121.813 Y117.854 E10.18444
G0 F6000 X121.534 Y118.14
G1 F1200 X118.788 Y115.394 E10.36527
G0 F6000 X118.109 Y115.281
G1 F1200 X121.235 Y118.407 E10.57112
G0 F6000 X120.917 Y118.654
G1 F1200 X117.514 Y115.252 E10.79518
G0 F6000 X116.971 Y115.274
G1 F1200 X120.575 Y118.878 E11.03251
G0 F6000 X120.214 Y119.083
G1 F1200 X116.439 Y115.308 E11.2811
G0 F6000 X115.907 Y115.341
G1 F1200 X119.834 Y119.268 E11.5397
G0 F6000 X119.425 Y119.425
G1 F1200 X115.375 Y115.375 E11.8064
G0 F6000 X114.844 Y115.409
G1 F1200 X118.989 Y119.555 E12.07939
G0 F6000 X118.527 Y119.658
G1 F1200 X114.312 Y115.443 E12.35695
G0 F6000 X113.779 Y115.476
G1 F1200 X118.028 Y119.725 E12.63675
G0 F6000 X117.482 Y119.745
G1 F1200 X113.248 Y115.51 E12.9156
G0 F6000 X112.716 Y115.544
G1 F1200 X116.893 Y119.721 E13.19067
G0 F6000 X116.288 Y119.682
G1 F1200 X112.184 Y115.578 E13.46092
G0 F6000 X111.652 Y115.611
G1 F1200 X115.684 Y119.643 E13.72644
G0 F6000 X115.08 Y119.605
G1 F1200 X111.12 Y115.645 E13.98721
G0 F6000 X110.588 Y115.679
G1 F1200 X114.475 Y119.566 E14.24317
G0 F6000 X113.871 Y119.527
G1 F1200 X110.056 Y115.713 E14.49437
G0 F6000 X109.524 Y115.747
G1 F1200 X113.266 Y119.489 E14.74078
G0 F6000 X112.661 Y119.45
G1 F1200 X108.992 Y115.78 E14.98243
G0 F6000 X108.46 Y115.814
G1 F1200 X112.057 Y119.411 E15.21929
G0 F6000 X111.452 Y119.372
G1 F1200 X107.929 Y115.848 E15.45132
G0 F6000 X107.396 Y115.882
G1 F1200 X110.848 Y119.334 E15.67864
G0 F6000 X110.244 Y119.295
G1 F1200 X106.865 Y115.916 E15.90116
G0 F6000 X106.416 Y116.033
G1 F1200 X109.639 Y119.256 E16.1134
G0 F6000 X109.035 Y119.217
G1 F1200 X106.416 Y116.599 E16.28583
G0 F6000 X106.416 Y117.164
G1 F1200 X108.43 Y119.178 E16.41845
G0 F6000 X107.826 Y119.139
G1 F1200 X106.417 Y117.731 E16.51121
G0 F6000 X106.417 Y118.296
G1 F1200 X107.221 Y119.1 E16.56415
G0 F6000 X106.617 Y119.062
G1 F1200 X106.417 Y118.862 E16.57732
G0 F6000 X105.656 Y118.862
G1 F2700 E11.57732
;MESH:NONMESH
G0 F300 X105.656 Y118.862 Z0.52
G0 F6000 X106.028 Y119.417
G0 X117.168 Y120.896
G1 F2700 E16.57732
G0 F6000 X117.118 Y121.679
;TIME_ELAPSED:25.969925
;LAYER:1
G1 F2700 E11.57732
M106 S85
;TYPE:WALL-OUTER
;MESH:3DBenchy.3mf
G1 F2700 E16.57732
G1 F1350 X117.59 Y121.688 E16.59616
G1 X118.05 Y121.67 E16.61454
G1 X118.501 Y121.626 E16.63262
G1 X119.012 Y121.544 E16.65328
G1 X119.513 Y121.43 E16.67379
G1 X119.978 Y121.293 E16.69313
G1 X120.389 Y121.148 E16.71053
G1 X120.842 Y120.957 E16.73015
G1 X121.265 Y120.743 E16.74907
G1 X121.738 Y120.469 E16.77089
G1 X122.186 Y120.166 E16.79247
G1 X122.505 Y119.921 E16.80853
G1 X122.912 Y119.568 E16.83003
G1 X123.248 Y119.238 E16.84883
G1 X123.563 Y118.886 E16.86768
G1 X123.86 Y118.513 E16.88671
G1 X124.123 Y118.14 E16.90493
G1 X124.384 Y117.717 E16.92476
G1 X124.421 Y117.531 E16.93233
G1 X124.425 Y117.411 E16.93713
G1 X124.299 Y117.137 E16.94916
G1 X124.054 Y116.755 E16.96728
G1 X123.773 Y116.37 E16.9863
G1 X123.513 Y116.057 E17.00254
G1 X123.262 Y115.783 E17.01737
G1 X123.036 Y115.551 E17.0303
G1 X122.755 Y115.289 E17.04563
G1 X122.414 Y115.004 E17.06337
G1 X121.978 Y114.687 E17.08488
G1 X121.636 Y114.468 E17.10109
G1 X121.28 Y114.265 E17.11745
G1 X120.893 Y114.067 E17.1348
G1 X120.499 Y113.894 E17.15197
G1 X120.053 Y113.73 E17.17094
G1 X119.575 Y113.587 E17.19085
G1 X119.081 Y113.469 E17.21112
G1 X118.568 Y113.383 E17.23189
G1 X118.121 Y113.335 E17.24983
G1 X117.658 Y113.313 E17.26833
G1 X117.273 Y113.315 E17.28369
G1 X105.127 Y114.133 E17.76957
G1 X104.887 Y114.228 E17.77987
G1 X104.75 Y114.313 E17.7863
G1 X104.596 Y114.542 E17.79732
G1 X104.544 Y114.851 E17.80982
G1 X104.541 Y116.886 E17.89105
G1 X107.089 Y116.887 E17.99274
G1 X107.25 Y116.969 E17.99995
G1 X107.288 Y117.087 E18.0049
G1 X107.288 Y117.914 E18.03791
G1 X107.25 Y118.032 E18.04286
G1 X107.089 Y118.114 E18.05007
G1 X104.541 Y118.116 E18.15176
G1 X104.542 Y120.221 E18.23578
G1 X104.614 Y120.462 E18.24582
G1 X104.692 Y120.625 E18.25303
G1 X104.847 Y120.764 E18.26134
G1 X105.138 Y120.867 E18.27366
G1 X117.118 Y121.679 E18.7529
G0 F7500 X117.136 Y121.279
;TYPE:WALL-INNER
G1 F1350 X117.586 Y121.288 E18.77087
G1 X118.022 Y121.271 E18.78828
G1 X118.45 Y121.229 E18.80545
G1 X118.936 Y121.151 E18.82509
G1 X119.412 Y121.043 E18.84457
G1 X119.855 Y120.912 E18.86301
G1 X120.245 Y120.775 E18.87951
G1 X120.674 Y120.594 E18.89809
G1 X121.074 Y120.391 E18.916
G1 X121.526 Y120.13 E18.93683
G1 X121.952 Y119.841 E18.95738
G1 X122.252 Y119.611 E18.97246
G1 X122.64 Y119.274 E18.99297
G1 X122.958 Y118.962 E19.01076
G1 X123.257 Y118.628 E19.02865
G1 X123.54 Y118.273 E19.04677
G1 X123.802 Y117.9 E19.06496
G1 X124.02 Y117.545 E19.08159
G1 X124.021 Y117.517 E19.08271
G1 X123.934 Y117.31 E19.09167
G1 X123.724 Y116.981 E19.10725
G1 X123.457 Y116.616 E19.12529
G1 X123.169 Y116.27 E19.14326
G1 X122.816 Y115.893 E19.16388
G1 X122.49 Y115.589 E19.18167
G1 X122.168 Y115.32 E19.19841
G1 X121.752 Y115.017 E19.21895
G1 X121.428 Y114.81 E19.2343
G1 X121.09 Y114.617 E19.24983
G1 X120.721 Y114.429 E19.26636
G1 X120.349 Y114.265 E19.28259
G1 X119.926 Y114.11 E19.30057
G1 X119.471 Y113.973 E19.31953
G1 X119.001 Y113.861 E19.33882
G1 X118.514 Y113.779 E19.35853
G1 X118.09 Y113.734 E19.37555
G1 X117.65 Y113.713 E19.39313
G1 X117.288 Y113.715 E19.40758
G1 X105.187 Y114.53 E19.89165
G1 X105.033 Y114.609 E19.89856
G1 X104.944 Y114.816 E19.90755
G1 X104.942 Y116.486 E19.9742
G1 X107.089 Y116.487 E20.05989
G1 X107.378 Y116.561 E20.0718
G1 X107.574 Y116.733 E20.08221
G1 X107.666 Y116.923 E20.09063
G1 X107.688 Y117.501 E20.11372
G1 X107.688 Y117.914 E20.1302
G1 X107.666 Y118.078 E20.13681
G1 X107.573 Y118.268 E20.14525
G1 X107.377 Y118.441 E20.15569
G1 X107.089 Y118.514 E20.16754
G1 X104.942 Y118.516 E20.25324
G1 X104.942 Y120.189 E20.32001
G1 X105.036 Y120.396 E20.32908
G1 X105.267 Y120.474 E20.33881
G1 X117.136 Y121.279 E20.81362
G0 F7500 X117.154 Y120.879
G1 F1350 X117.582 Y120.888 E20.8307
G1 X117.995 Y120.871 E20.8472
G1 X118.399 Y120.832 E20.8634
G1 X118.86 Y120.758 E20.88204
G1 X119.311 Y120.655 E20.9005
G1 X119.732 Y120.532 E20.91801
G1 X120.1 Y120.401 E20.9336
G1 X120.506 Y120.231 E20.95116
G1 X120.884 Y120.039 E20.96809
G1 X121.313 Y119.791 E20.98786
G1 X121.718 Y119.517 E21.00738
G1 X121.999 Y119.301 E21.02153
G1 X122.368 Y118.98 E21.04105
G1 X122.669 Y118.686 E21.05784
G1 X122.974 Y118.341 E21.07622
G1 X123.235 Y118.012 E21.09298
G1 X123.461 Y117.69 E21.10868
G1 X123.579 Y117.498 E21.11768
G1 X123.385 Y117.195 E21.13204
G1 X123.121 Y116.837 E21.14979
G1 X122.869 Y116.535 E21.16549
G1 X122.533 Y116.177 E21.18508
G1 X122.226 Y115.889 E21.20188
G1 X121.922 Y115.636 E21.21767
G1 X121.526 Y115.348 E21.23721
G1 X121.221 Y115.152 E21.25168
G1 X120.9 Y114.969 E21.26643
G1 X120.55 Y114.791 E21.2821
G1 X120.199 Y114.637 E21.2974
G1 X119.8 Y114.49 E21.31437
G1 X119.367 Y114.36 E21.33242
G1 X118.921 Y114.253 E21.35072
G1 X118.46 Y114.176 E21.36938
G1 X118.059 Y114.133 E21.38547
G1 X117.642 Y114.113 E21.40214
G1 X117.303 Y114.115 E21.41567
G1 X107.046 Y114.805 E21.82597
G1 X105.344 Y114.92 E21.89406
G1 X105.342 Y116.086 E21.94059
G1 X107.089 Y116.087 E22.01032
G1 X107.57 Y116.21 E22.03014
G1 X107.897 Y116.498 E22.04753
G1 X108.051 Y116.814 E22.06156
G1 X108.088 Y117.087 E22.07255
G1 X108.088 Y117.914 E22.10556
G1 X108.051 Y118.187 E22.11656
G1 X107.897 Y118.504 E22.13062
G1 X107.57 Y118.791 E22.14799
G1 X107.194 Y118.909 E22.16372
G1 X107.089 Y118.914 E22.16791
G1 X105.342 Y118.916 E22.23764
G1 X105.343 Y120.078 E22.28402
G1 X117.154 Y120.879 E22.7565
G0 F7500 X117.171 Y120.479
G1 F1350 X117.578 Y120.488 E22.77275
G1 X117.968 Y120.472 E22.78833
G1 X118.348 Y120.435 E22.80357
G1 X118.784 Y120.365 E22.82119
G1 X119.21 Y120.268 E22.83863
G1 X119.609 Y120.151 E22.85522
G1 X119.956 Y120.028 E22.86992
G1 X120.337 Y119.867 E22.88643
G1 X120.693 Y119.687 E22.90235
G1 X121.101 Y119.451 E22.92116
G1 X121.484 Y119.192 E22.93961
G1 X121.746 Y118.991 E22.95279
G1 X122.097 Y118.686 E22.97135
G1 X122.379 Y118.409 E22.98713
G1 X122.662 Y118.091 E23.00412
G1 X122.909 Y117.781 E23.01994
G1 X123.107 Y117.499 E23.03369
G1 X122.904 Y117.215 E23.04763
G1 X122.65 Y116.897 E23.06387
G1 X122.386 Y116.605 E23.07958
G1 X122.104 Y116.323 E23.0955
G1 X121.76 Y116.022 E23.11374
G1 X121.492 Y115.818 E23.12718
G1 X121.245 Y115.643 E23.13927
G1 X121.014 Y115.494 E23.15024
G1 X120.71 Y115.321 E23.1642
G1 X120.379 Y115.152 E23.17903
G1 X120.05 Y115.008 E23.19337
G1 X119.673 Y114.869 E23.2094
G1 X119.263 Y114.746 E23.22649
G1 X118.842 Y114.646 E23.24376
G1 X118.405 Y114.573 E23.26144
G1 X118.028 Y114.532 E23.27658
