;FLAVOR:Marlin
;TIME:2583
;Filament used: 1.16701m
;Layer height: 0.12
;MINX:90.847
;MINY:105.2
;MINZ:0.12
;MAXX:144.153
;MAXY:129.8
;MAXZ:8.48
;Generated with Cura_SteamEngine 5.0.0
M140 S50
M105
M190 S50
M104 S200
M105
M109 S200
M82 ;absolute extrusion mode
; Ender 3 Custom Start G-code
G92 E0 ; Reset Extruder
G28 ; Home all axes
G1 Z2.0 F3000 ; Move Z Axis up little to prevent scratching of Heat Bed
G1 X0.1 Y20 Z0.3 F5000.0 ; Move to start position
G1 X0.1 Y200.0 Z0.3 F1500.0 E15 ; Draw the first line
G1 X0.4 Y200.0 Z0.3 F5000.0 ; Move to side a little
G1 X0.4 Y20 Z0.3 F1500.0 E30 ; Draw the second line
G92 E0 ; Reset Extruder
G1 Z2.0 F3000 ; Move Z Axis up little to prevent scratching of Heat Bed
G1 X5 Y20 Z0.3 F5000.0 ; Move over to prevent blob squish
G92 E0
G92 E0
G1 F2700 E-5
;LAYER_COUNT:59
;LAYER:0
M107
;MESH:VSSS_CIMA - Part 3 (1).stl
G0 F6000 X91.7 Y113.75 Z0.12
;TYPE:WALL-OUTER
G1 F2700 E0
G1 F1200 X143.3 Y113.75 E1.02973
G1 X143.3 Y109.475 E1.11505
G1 X143.3 Y105.2 E1.20036
G1 X91.7 Y105.2 E2.23009
G1 X91.7 Y113.75 E2.40072
G0 F6000 X92.1 Y113.35
;TYPE:WALL-INNER
G1 F1200 X142.9 Y113.35 E3.41449
G1 X142.9 Y109.475 E3.49182
G1 X142.9 Y105.6 E3.56915
G1 X133.552 Y105.601 E3.75569
G1 F1132.1 X133.228 Y105.625 E3.76257
G1 F1059.6 X132.969 Y105.63 E3.76842
G1 F1036.7 X132.71 Y105.635 E3.77441
G1 F1021.3 X132.197 Y105.637 E3.78643
G1 F1057.3 X131.937 Y105.619 E3.79234
G1 F1148.3 X131.677 Y105.6 E3.79777
G1 F1200 X118.552 Y105.601 E4.0597
G1 F1132.1 X118.228 Y105.625 E4.06657
G1 F1059.6 X117.969 Y105.63 E4.07242
G1 F1036.7 X117.71 Y105.635 E4.07841
G1 F1021.3 X117.197 Y105.637 E4.09044
G1 F1057.3 X116.937 Y105.619 E4.09634
G1 F1148.3 X116.677 Y105.6 E4.10178
G1 F1200 X103.552 Y105.601 E4.3637
G1 F1132.1 X103.228 Y105.625 E4.37057
G1 F1059.6 X102.969 Y105.63 E4.37643
G1 F1036.7 X102.71 Y105.635 E4.38241
G1 F1021.3 X102.197 Y105.637 E4.39444
G1 F1057.3 X101.937 Y105.619 E4.40034
G1 F1148.3 X101.677 Y105.6 E4.40578
G1 F1200 X92.1 Y105.6 E4.5969
G1 X92.1 Y113.35 E4.75156
G1 F2700 E-0.24844
G0 F6000 X92.28 Y113.17
G0 X93.072 Y106.572
G0 X99.904 Y106.582
G0 X100.516 Y109.89
G0 X102.19 Y110.512
G1 F2700 E4.75156
G0 F6000 X102.253 Y109.906
;TYPE:WALL-OUTER
G1 F1200 X101.897 Y109.812 E4.75891
G1 X101.573 Y109.649 E4.76615
G1 X101.286 Y109.416 E4.77352
G1 X101.059 Y109.125 E4.78089
G1 X100.9 Y108.796 E4.78818
G1 X100.837 Y108.535 E4.79354
G1 X100.809 Y108.073 E4.80277
G1 X100.885 Y107.703 E4.81031
G1 X101.029 Y107.376 E4.81744
G1 X101.244 Y107.079 E4.82476
G1 X101.52 Y106.836 E4.8321
G1 X101.842 Y106.659 E4.83943
G1 X102.192 Y106.553 E4.84673
G1 X102.561 Y106.527 E4.85411
G1 X102.925 Y106.58 E4.86145
G1 X103.268 Y106.709 E4.86876
G1 X103.578 Y106.913 E4.87617
G1 X103.834 Y107.172 E4.88344
G1 X104.03 Y107.485 E4.89081
G1 X104.153 Y107.831 E4.89814
G1 X104.199 Y108.193 E4.90542
G1 X104.165 Y108.562 E4.91281
G1 X104.063 Y108.896 E4.91978
G1 X103.872 Y109.229 E4.92744
G1 X103.621 Y109.501 E4.93483
G1 X103.324 Y109.711 E4.94209
G1 X103.286 Y109.732 E4.94295
G1 X102.983 Y109.855 E4.94948
G1 X102.622 Y109.92 E4.9568
G1 X102.253 Y109.906 E4.96417
G0 F6000 X102.233 Y110.306
;TYPE:WALL-INNER
G1 F1200 X101.789 Y110.198 E4.97329
G1 X101.389 Y110.005 E4.98215
G1 X101.03 Y109.723 E4.99126
G1 X100.741 Y109.367 E5.00041
G1 X100.538 Y108.966 E5.00938
G1 X100.447 Y108.623 E5.01646
G1 X100.409 Y108.074 E5.02745
G1 X100.495 Y107.617 E5.03673
G1 X100.665 Y107.21 E5.04553
G1 X100.923 Y106.841 E5.05451
G1 X101.26 Y106.532 E5.06364
G1 X101.653 Y106.306 E5.07268
G1 F1116.3 X102.072 Y106.14 E5.08235
G1 F1039 X102.536 Y106.095 E5.0931
G1 F1002.1 X102.996 Y106.138 E5.10414
G1 F1073.8 X103.414 Y106.336 E5.11445
G1 F1200 X103.802 Y106.581 E5.12361
G1 X104.122 Y106.894 E5.13254
G1 X104.372 Y107.277 E5.14167
G1 X104.532 Y107.703 E5.15075
G1 X104.597 Y108.147 E5.15971
G1 X104.563 Y108.604 E5.16885
G1 X104.444 Y109.018 E5.17745
G1 X104.216 Y109.433 E5.1869
G1 X103.911 Y109.777 E5.19607
G1 X103.551 Y110.04 E5.20497
G1 X103.436 Y110.103 E5.20759
G1 X103.133 Y110.225 E5.2141
G1 X102.688 Y110.315 E5.22316
G1 X102.233 Y110.306 E5.23225
G1 F2700 E0.23225
G0 F6000 X102.211 Y110.514
G0 X104.83 Y110.204
G0 X105.098 Y106.582
G0 X114.904 Y106.582
G0 X115.411 Y110.128
G0 X117.69 Y110.526
G1 F2700 E5.23225
G0 F6000 X117.622 Y109.92
;TYPE:WALL-OUTER
G1 F1200 X117.253 Y109.906 E5.23962
G1 X116.897 Y109.812 E5.24696
G1 X116.573 Y109.649 E5.2542
G1 X116.286 Y109.416 E5.26158
G1 X116.059 Y109.125 E5.26894
G1 X115.9 Y108.796 E5.27624
G1 X115.837 Y108.535 E5.28159
G1 X115.809 Y108.073 E5.29083
G1 X115.885 Y107.703 E5.29837
G1 X116.029 Y107.376 E5.3055
G1 X116.244 Y107.079 E5.31282
G1 X116.52 Y106.836 E5.32015
G1 X116.842 Y106.659 E5.32749
G1 X117.192 Y106.553 E5.33478
G1 X117.561 Y106.527 E5.34217
G1 X117.925 Y106.58 E5.34951
G1 X118.268 Y106.709 E5.35682
G1 X118.578 Y106.913 E5.36423
G1 X118.834 Y107.172 E5.37149
G1 X119.03 Y107.485 E5.37886
G1 X119.153 Y107.831 E5.38619
G1 X119.199 Y108.193 E5.39347
G1 X119.165 Y108.562 E5.40087
G1 X119.063 Y108.896 E5.40784
G1 X118.872 Y109.229 E5.4155
G1 X118.621 Y109.501 E5.42288
G1 X118.324 Y109.711 E5.43014
G1 X117.983 Y109.855 E5.43753
G1 X117.622 Y109.92 E5.44485
G0 F6000 X117.233 Y110.306
;TYPE:WALL-INNER
G1 F1200 X116.789 Y110.198 E5.45397
G1 X116.389 Y110.005 E5.46283
G1 X116.03 Y109.723 E5.47194
G1 X115.741 Y109.367 E5.48109
G1 X115.538 Y108.966 E5.49006
G1 X115.447 Y108.623 E5.49714
G1 X115.409 Y108.074 E5.50813
G1 X115.495 Y107.617 E5.51741
G1 X115.665 Y107.21 E5.52621
G1 X115.923 Y106.841 E5.53519
G1 X116.26 Y106.532 E5.54432
G1 X116.653 Y106.306 E5.55337
G1 F1116.3 X117.072 Y106.14 E5.56303
G1 F1039 X117.536 Y106.095 E5.57378
G1 F1002.1 X117.996 Y106.138 E5.58482
G1 F1073.8 X118.414 Y106.336 E5.59513
G1 F1200 X118.802 Y106.581 E5.60429
G1 X119.122 Y106.894 E5.61322
G1 X119.372 Y107.277 E5.62235
G1 X119.532 Y107.703 E5.63143
G1 X119.597 Y108.147 E5.64039
G1 X119.563 Y108.604 E5.64953
G1 X119.444 Y109.018 E5.65813
G1 X119.216 Y109.433 E5.66758
G1 X118.911 Y109.777 E5.67675
G1 X118.551 Y110.04 E5.68565
G1 X118.133 Y110.225 E5.69477
G1 X117.688 Y110.315 E5.70383
G1 X117.233 Y110.306 E5.71291
G1 F2700 E0.71291
G0 F6000 X117.211 Y110.514
G0 X119.83 Y110.204
G0 X120.098 Y106.582
G0 X129.904 Y106.582
G0 X130.259 Y109.674
G0 X131.704 Y110.39
G1 F2700 E5.71291
G0 F6000 X131.897 Y109.812
;TYPE:WALL-OUTER
G1 F1200 X131.573 Y109.649 E5.72015
G1 X131.286 Y109.416 E5.72753
G1 X131.059 Y109.125 E5.73489
G1 X130.9 Y108.796 E5.74219
G1 X130.837 Y108.535 E5.74754
G1 X130.809 Y108.073 E5.75678
G1 X130.885 Y107.703 E5.76432
G1 X131.029 Y107.376 E5.77145
G1 X131.244 Y107.079 E5.77877
G1 X131.52 Y106.836 E5.78611
G1 X131.842 Y106.659 E5.79344
G1 X132.192 Y106.553 E5.80074
G1 X132.561 Y106.527 E5.80812
G1 X132.925 Y106.58 E5.81546
G1 X133.268 Y106.709 E5.82277
G1 X133.578 Y106.913 E5.83018
G1 X133.834 Y107.172 E5.83744
G1 X134.03 Y107.485 E5.84481
G1 X134.153 Y107.831 E5.85214
G1 X134.199 Y108.193 E5.85942
G1 X134.165 Y108.562 E5.86682
G1 X134.063 Y108.896 E5.87379
G1 X133.872 Y109.229 E5.88145
G1 X133.621 Y109.501 E5.88884
G1 X133.324 Y109.711 E5.89609
G1 X132.983 Y109.855 E5.90348
G1 X132.622 Y109.92 E5.9108
G1 X132.253 Y109.906 E5.91817
G1 X131.897 Y109.812 E5.92552
G0 F6000 X132.233 Y110.306
;TYPE:WALL-INNER
G1 F1200 X131.789 Y110.198 E5.93464
G1 X131.389 Y110.005 E5.9435
G1 X131.03 Y109.723 E5.95261
G1 X130.741 Y109.367 E5.96176
G1 X130.538 Y108.966 E5.97073
G1 X130.447 Y108.623 E5.97781
G1 X130.409 Y108.074 E5.98879
G1 X130.495 Y107.617 E5.99807
G1 X130.665 Y107.21 E6.00688
G1 X130.923 Y106.841 E6.01586
G1 X131.26 Y106.532 E6.02499
G1 X131.653 Y106.306 E6.03403
G1 F1116.3 X132.072 Y106.14 E6.0437
G1 F1039 X132.536 Y106.095 E6.05445
G1 F1002.1 X132.996 Y106.138 E6.06549
G1 F1073.8 X133.414 Y106.336 E6.0758
G1 F1200 X133.802 Y106.581 E6.08496
G1 X134.122 Y106.894 E6.09389
G1 X134.372 Y107.277 E6.10302
G1 X134.532 Y107.703 E6.1121
G1 X134.597 Y108.147 E6.12106
G1 X134.563 Y108.604 E6.1302
G1 X134.444 Y109.018 E6.1388
G1 X134.216 Y109.433 E6.14825
G1 X133.911 Y109.777 E6.15742
G1 X133.551 Y110.04 E6.16632
G1 X133.133 Y110.225 E6.17544
G1 X132.688 Y110.315 E6.1845
G1 X132.233 Y110.306 E6.19358
G0 F6000 X132.211 Y110.514
G0 X129.804 Y109.664
G0 X129.904 Y106.582
G0 X120.098 Y106.582
G0 X119.481 Y109.906
G0 X117.754 Y110.709
G1 F1200 X117.214 Y110.706 E6.20436
G1 X116.682 Y110.583 E6.21526
G1 X116.205 Y110.36 E6.22576
G1 X115.773 Y110.03 E6.23661
G1 X115.422 Y109.609 E6.24755
G1 X115.176 Y109.135 E6.25821
G1 X115.057 Y108.711 E6.267
G1 X115.01 Y108.396 E6.27335
G1 X115.009 Y108.076 E6.27974
G1 X115.104 Y107.53 E6.2908
G1 X115.301 Y107.044 E6.30126
G1 X115.601 Y106.602 E6.31192
G1 X116 Y106.228 E6.32284
G1 X116.377 Y106.001 E6.33162
G1 X103.63 Y106.001 E6.586
G1 X104.026 Y106.249 E6.59532
G1 X104.41 Y106.616 E6.60592
G1 X104.714 Y107.069 E6.61681
G1 X104.911 Y107.575 E6.62765
G1 X104.994 Y108.101 E6.63827
G1 X104.961 Y108.645 E6.64915
G1 X104.825 Y109.14 E6.65939
G1 X104.561 Y109.636 E6.67061
G1 X104.201 Y110.052 E6.68159
G1 X103.779 Y110.369 E6.69212
G1 X103.284 Y110.596 E6.70299
G1 X102.754 Y110.709 E6.7138
G1 X102.214 Y110.706 E6.72458
G1 X101.682 Y110.583 E6.73547
G1 X101.205 Y110.36 E6.74598
G1 X100.773 Y110.03 E6.75683
G1 X100.422 Y109.609 E6.76777
G1 X100.176 Y109.135 E6.77843
G1 X100.057 Y108.711 E6.78721
G1 X100.01 Y108.396 E6.79357
G1 X100.009 Y108.076 E6.79996
G1 X100.104 Y107.53 E6.81102
G1 X100.301 Y107.044 E6.82148
G1 X100.601 Y106.602 E6.83214
G1 X101 Y106.228 E6.84305
G1 X101.377 Y106.001 E6.85184
G1 X92.5 Y106 E7.02899
G1 X92.5 Y112.95 E7.16768
G1 X142.5 Y112.95 E8.16549
G1 X142.5 Y109.475 E8.23483
G1 X142.5 Y106 E8.30418
G1 X133.63 Y106.001 E8.48119
G1 X134.026 Y106.249 E8.49051
G1 X134.41 Y106.616 E8.50112
G1 X134.714 Y107.069 E8.512
G1 X134.911 Y107.575 E8.52284
G1 X134.994 Y108.101 E8.53346
G1 X134.961 Y108.645 E8.54434
G1 X134.825 Y109.14 E8.55459
G1 X134.561 Y109.636 E8.5658
G1 X134.201 Y110.052 E8.57678
G1 X133.779 Y110.369 E8.58731
G1 X133.284 Y110.596 E8.59818
G1 X132.754 Y110.709 E8.60899
G1 X132.214 Y110.706 E8.61977
G1 X131.682 Y110.583 E8.63066
G1 X131.205 Y110.36 E8.64117
G1 X130.773 Y110.03 E8.65202
G1 X130.422 Y109.609 E8.66296
G1 X130.176 Y109.135 E8.67362
G1 X130.057 Y108.711 E8.68241
G1 X130.01 Y108.396 E8.68876
G1 X130.009 Y108.076 E8.69515
G1 X130.104 Y107.53 E8.70621
G1 X130.301 Y107.044 E8.71667
G1 X130.601 Y106.602 E8.72733
G1 X131 Y106.228 E8.73825
G1 X131.377 Y106.001 E8.74703
G1 X118.63 Y106.001 E9.00141
G1 X119.026 Y106.249 E9.01073
G1 X119.41 Y106.616 E9.02133
G1 X119.714 Y107.069 E9.03222
G1 X119.911 Y107.575 E9.04306
G1 X119.994 Y108.101 E9.05368
G1 X119.961 Y108.645 E9.06456
G1 X119.825 Y109.14 E9.0748
G1 X119.561 Y109.636 E9.08602
G1 X119.201 Y110.052 E9.09699
G1 X118.779 Y110.369 E9.10753
G1 X118.284 Y110.596 E9.11839
G1 X117.754 Y110.709 E9.12921
G0 F6000 X117.52 Y111.121
G1 F1200 X117.194 Y111.105 E9.13572
G1 X116.886 Y111.055 E9.14195
G1 X116.574 Y110.969 E9.14841
G1 X116.307 Y110.863 E9.15414
G1 X116.021 Y110.716 E9.16056
G1 X115.767 Y110.546 E9.16666
G1 X115.517 Y110.337 E9.17316
G1 X115.3 Y110.109 E9.17944
G1 X115.103 Y109.851 E9.18592
G1 X114.95 Y109.598 E9.19182
G1 X114.813 Y109.305 E9.19827
G1 X114.716 Y109.02 E9.20428
G1 X114.644 Y108.701 E9.21081
G1 X114.61 Y108.397 E9.21691
G1 X114.609 Y108.077 E9.2233
G1 X114.641 Y107.769 E9.22948
G1 X114.713 Y107.443 E9.23614
G1 X114.806 Y107.167 E9.24195
G1 X114.937 Y106.879 E9.24827
G1 X115.087 Y106.624 E9.25417
G1 X115.253 Y106.401 E9.25972
G1 X104.746 Y106.401 E9.4694
G1 X105.056 Y106.861 E9.48047
G1 X105.186 Y107.139 E9.48659
G1 X105.29 Y107.447 E9.49308
G1 X105.354 Y107.735 E9.49897
G1 X105.391 Y108.055 E9.5054
G1 X105.393 Y108.362 E9.51152
G1 X105.359 Y108.687 E9.51804
G1 X105.3 Y108.969 E9.52379
G1 X105.206 Y109.262 E9.52993
G1 X105.078 Y109.546 E9.53615
G1 X104.905 Y109.84 E9.54296
G1 X104.715 Y110.091 E9.54924
G1 X104.491 Y110.327 E9.55573
G1 X104.271 Y110.516 E9.56152
G1 X104.006 Y110.698 E9.56794
G1 X103.737 Y110.844 E9.57404
G1 X103.434 Y110.967 E9.58057
G1 X103.137 Y111.051 E9.58673
G1 X102.82 Y111.104 E9.59314
G1 X102.52 Y111.121 E9.59914
G1 X102.194 Y111.105 E9.60565
G1 X101.886 Y111.055 E9.61188
G1 X101.574 Y110.969 E9.61834
G1 X101.307 Y110.863 E9.62407
G1 X101.021 Y110.716 E9.63049
G1 X100.767 Y110.546 E9.63659
G1 X100.517 Y110.337 E9.64309
G1 X100.3 Y110.109 E9.64937
G1 X100.103 Y109.851 E9.65585
G1 X99.95 Y109.598 E9.66175
G1 X99.813 Y109.305 E9.66821
G1 X99.716 Y109.02 E9.67421
G1 X99.644 Y108.701 E9.68074
G1 X99.61 Y108.397 E9.68684
G1 X99.609 Y108.077 E9.69323
G1 X99.641 Y107.769 E9.69941
G1 X99.713 Y107.443 E9.70607
G1 X99.806 Y107.167 E9.71188
G1 X99.937 Y106.879 E9.7182
G1 X100.087 Y106.624 E9.7241
G1 X100.253 Y106.401 E9.72965
G1 X92.9 Y106.4 E9.87639
G1 X92.9 Y112.55 E9.99912
G1 X142.1 Y112.55 E10.98096
G1 X142.1 Y109.475 E11.04232
G1 X142.1 Y106.4 E11.10369
G1 X134.746 Y106.401 E11.25044
G1 X135.056 Y106.861 E11.26151
G1 X135.186 Y107.139 E11.26764
G1 X135.29 Y107.447 E11.27412
G1 X135.354 Y107.735 E11.28001
G1 X135.391 Y108.055 E11.28644
G1 X135.393 Y108.362 E11.29257
G1 X135.359 Y108.687 E11.29909
G1 X135.3 Y108.969 E11.30484
G1 X135.206 Y109.262 E11.31098
G1 X135.078 Y109.546 E11.31719
G1 X134.905 Y109.84 E11.324
G1 X134.715 Y110.091 E11.33028
G1 X134.491 Y110.327 E11.33678
G1 X134.271 Y110.516 E11.34257
G1 X134.006 Y110.698 E11.34898
G1 X133.737 Y110.844 E11.35509
G1 X133.434 Y110.967 E11.36162
G1 X133.137 Y111.051 E11.36777
G1 X132.82 Y111.104 E11.37419
G1 X132.52 Y111.121 E11.38018
G1 X132.194 Y111.105 E11.3867
G1 X131.886 Y111.055 E11.39293
G1 X131.574 Y110.969 E11.39938
G1 X131.307 Y110.863 E11.40512
G1 X131.021 Y110.716 E11.41153
G1 X130.767 Y110.546 E11.41763
G1 X130.517 Y110.337 E11.42414
G1 X130.3 Y110.109 E11.43042
G1 X130.103 Y109.851 E11.4369
G1 X129.95 Y109.598 E11.4428
G1 X129.813 Y109.305 E11.44925
G1 X129.716 Y109.02 E11.45526
G1 X129.644 Y108.701 E11.46178
G1 X129.61 Y108.397 E11.46789
G1 X129.609 Y108.077 E11.47427
G1 X129.641 Y107.769 E11.48045
G1 X129.713 Y107.443 E11.48712
G1 X129.806 Y107.167 E11.49293
G1 X129.937 Y106.879 E11.49924
G1 X130.087 Y106.624 E11.50515
G1 X130.253 Y106.401 E11.51069
G1 X119.746 Y106.401 E11.72037
G1 X120.056 Y106.861 E11.73144
G1 X120.186 Y107.139 E11.73757
G1 X120.29 Y107.447 E11.74406
G1 X120.354 Y107.735 E11.74994
G1 X120.391 Y108.055 E11.75637
G1 X120.393 Y108.362 E11.7625
G1 X120.359 Y108.687 E11.76902
G1 X120.3 Y108.969 E11.77477
G1 X120.206 Y109.262 E11.78091
G1 X120.078 Y109.546 E11.78713
G1 X119.905 Y109.84 E11.79393
G1 X119.715 Y110.091 E11.80022
G1 X119.491 Y110.327 E11.80671
G1 X119.271 Y110.516 E11.8125
G1 X119.006 Y110.698 E11.81891
G1 X118.737 Y110.844 E11.82502
G1 X118.434 Y110.967 E11.83155
G1 X118.137 Y111.051 E11.83771
G1 X117.82 Y111.104 E11.84412
G1 X117.52 Y111.121 E11.85012
G1 F2700 E6.85012
G0 F6000 X114.488 Y108.739
G0 X114.904 Y106.582
G0 X105.098 Y106.582
G0 X104.361 Y110.65
G0 X100.17 Y110.205
G0 X99.904 Y106.582
G0 X93.072 Y106.572
G0 X93.072 Y112.378
G0 X116.355 Y112.449
G1 F2700 E11.85012
G0 F6000 X116.355 Y112.189
;TYPE:SKIN
G1 F1000 X116.68 Y112.109 E11.85813
G1 F852.6 X117.097 Y112.107 E11.86984
G1 F857.1 X117.585 Y112.113 E11.88348
G1 F855.6 X117.941 Y112.106 E11.89344
G1 F829 X118.193 Y112.096 E11.90073
G1 F969.7 X118.589 Y112.19 E11.91078
G1 F1200 X119.065 Y112.189 E11.92028
G1 X127.52 Y112.19 E12.08901
G1 X131.355 Y112.189 E12.16554
G1 F1000 X131.68 Y112.109 E12.17356
G1 F852.6 X132.097 Y112.107 E12.18527
G1 F857.1 X132.585 Y112.113 E12.1989
G1 F855.6 X132.941 Y112.106 E12.20887
G1 F829 X133.193 Y112.096 E12.21615
G1 F969.7 X133.589 Y112.19 E12.22621
G1 F1200 X134.065 Y112.189 E12.2357
G1 X141.74 Y112.19 E12.38887
G1 X141.74 Y109.475 E12.44305
G1 X141.74 Y106.76 E12.49723
G1 X135.407 Y106.762 E12.62361
G1 X135.526 Y107.021 E12.6293
G1 X135.632 Y107.326 E12.63574
G1 X135.713 Y107.685 E12.64309
G1 X135.749 Y108.013 E12.64967
G1 X135.752 Y108.377 E12.65694
G1 X135.693 Y108.883 E12.6671
G1 X135.551 Y109.364 E12.67711
G1 X135.398 Y109.712 E12.6847
G1 X135.217 Y110.019 E12.69181
G1 X134.991 Y110.321 E12.69934
